X:029
T:Roslin Castle TS.029
M:C|
L:1/8
Q:1/2=45
S:Thomas Sands’ MS,1810,Lincolnshire
R:air
O:England;Lincolnshire
Z:vmp.Ruairidh Greig, 2011
K:Em
“_Slow”(GF)|E2(Bc)”tr”B2AB|{AB}cBAG{G}”tr”F2GF|E2efg2fe|^def^d”tr”B2(AB)|
{AB}cBAG”tr”F2(GA)|BGFE e^def|a/g/f/e/ g/f/e/d/ eB (d/c/)(B/A/)|G2F2E2:|
B2|eBef {ef}g2fe|b2agf2e^d|eBef”tr”g2fe|ba (g/b/a/g/)Hf3(AB)|
{AB}cBAG”tr”F2(GA)|BGFE e^def|(a/g/f/e/) (g/f/e/d/) eB (d/c/B/A/)|G2F2″tr”E4|]

